assets/images/avatar/user_blue_72px.svg

<?xml version="1.0" encoding="UTF-8" standalone="no"?>
<svg width="76px" height="76px" viewBox="0 0 76 76" version="1.1" xmlns="http://www.w3.org/2000/svg" xmlns:xlink="http://www.w3.org/1999/xlink" xmlns:sketch="http://www.bohemiancoding.com/sketch/ns">
    <!-- Generator: Sketch 3.3.3 (12081) - http://www.bohemiancoding.com/sketch -->
    <title>UserIcon</title>
    <desc>Created with Sketch.</desc>
    <defs>
        <circle id="path-1" cx="36" cy="36" r="36"></circle>
        <circle id="path-3" cx="36" cy="36" r="36"></circle>
    </defs>
    <g id="Page-1" stroke="none" stroke-width="1" fill="none" fill-rule="evenodd" sketch:type="MSPage">
        <g id="Artboard-26" sketch:type="MSArtboardGroup" transform="translate(-789.000000, -1127.000000)">
            <g id="Logo" sketch:type="MSLayerGroup" transform="translate(203.000000, 1065.000000)">
                <g id="Fill-45-Copy-+-Oppia">
                    <g id="UserIcon" transform="translate(588.000000, 64.000000)">
                        <mask id="mask-2" sketch:name="Border" fill="white">
                            <use xlink:href="#path-1"></use>
                        </mask>
                        <use id="Border" stroke="#0D47A1" stroke-width="2" sketch:type="MSShapeGroup" xlink:href="#path-1"></use>
                        <g id="OwlIcon-Copy-3" mask="url(#mask-2)">
                            <mask id="mask-4" sketch:name="Mask" fill="white">
                                <use xlink:href="#path-3"></use>
                            </mask>
                            <use id="Mask" fill="#FFFFFF" sketch:type="MSShapeGroup" xlink:href="#path-3"></use>
                            <g id="ic_person_48px-copy" mask="url(#mask-4)" sketch:type="MSShapeGroup">
                                <g transform="translate(-2.166667, -4.833333)" id="Shape">
                                    <path d="M39,51.1875 C46.1825,51.1875 52,45.35375 52,38.1875 C52,31.005 46.1825,25.1875 39,25.1875 C31.8175,25.1875 26,31.005 26,38.1875 C26,45.35375 31.8175,51.1875 39,51.1875 L39,51.1875 Z M39,57.6875 C30.33875,57.6875 13,62.02625 13,70.6875 L13,77.1875 L65,77.1875 L65,70.6875 C65,62.02625 47.66125,57.6875 39,57.6875 L39,57.6875 Z" fill="#0D47A1" fill-rule="evenodd"></path>
                                    <path d="M3.63797881e-12,0 L78,0 L78,78 L3.63797881e-12,78 L3.63797881e-12,0 Z" fill="none"></path>
                                </g>
                            </g>
                        </g>
                    </g>
                </g>
            </g>
        </g>
    </g>
</svg>

<svg xmlns="http://www.w3.org/2000/svg" xmlns:xlink="http://www.w3.org/1999/xlink" width="76" height="76" xmlns:v="https://vecta.io/nano"><defs><circle id="A" cx="36" cy="36" r="36"/><circle id="B" cx="36" cy="36" r="36"/></defs><g transform="translate(2 2)" fill="none" fill-rule="evenodd"><mask id="C" fill="#fff"><use xlink:href="#A"/></mask><use stroke="#0d47a1" stroke-width="2" xlink:href="#A"/><g mask="url(#C)"><mask id="D" fill="#fff"><use xlink:href="#B"/></mask><use fill="#fff" xlink:href="#B"/><g mask="url(#D)"><path d="M39 51.188a13.01 13.01 0 0 0 13-13 13 13 0 1 0-26 0 13.01 13.01 0 0 0 13 13h0zm0 6.5c-8.661 0-26 4.339-26 13v6.5h52v-6.5c0-8.661-17.339-13-26-13h0z" fill="#0d47a1" transform="translate(-2.167 -4.833)"/></g></g></g></svg>
